svg/aws-rds.svg

<?xml version="1.0" encoding="UTF-8"?>
<svg xmlns="http://www.w3.org/2000/svg" xmlns:xlink="http://www.w3.org/1999/xlink" width="32" height="32" viewBox="0 0 32 32">
<path fill-rule="nonzero" fill="rgb(78.823529%, 14.509804%, 81.960784%)" fill-opacity="1" d="M 0.203125 0.203125 L 31.796875 0.203125 L 31.796875 31.796875 L 0.203125 31.796875 Z M 0.203125 0.203125 "/>
<path fill-rule="nonzero" fill="rgb(100%, 100%, 100%)" fill-opacity="1" d="M 4.902344 4.265625 L 9.097656 8.457031 L 8.457031 9.097656 L 4.265625 4.902344 L 4.265625 8.328125 L 3.363281 8.328125 L 3.363281 3.8125 C 3.363281 3.566406 3.566406 3.363281 3.8125 3.363281 L 8.328125 3.363281 L 8.328125 4.265625 Z M 28.636719 3.8125 L 28.636719 8.328125 L 27.734375 8.328125 L 27.734375 4.902344 L 23.542969 9.097656 L 22.902344 8.457031 L 27.097656 4.265625 L 23.671875 4.265625 L 23.671875 3.363281 L 28.1875 3.363281 C 28.433594 3.363281 28.636719 3.566406 28.636719 3.8125 M 27.734375 23.671875 L 28.636719 23.671875 L 28.636719 28.1875 C 28.636719 28.433594 28.433594 28.636719 28.1875 28.636719 L 23.671875 28.636719 L 23.671875 27.734375 L 27.097656 27.734375 L 22.902344 23.542969 L 23.542969 22.902344 L 27.734375 27.097656 Z M 27.507812 15.644531 C 27.507812 14.144531 25.777344 12.667969 22.882812 11.6875 L 23.171875 10.832031 C 26.503906 11.957031 28.410156 13.710938 28.410156 15.644531 C 28.410156 17.574219 26.503906 19.332031 23.171875 20.460938 L 22.882812 19.605469 C 25.777344 18.625 27.507812 17.140625 27.507812 15.644531 M 4.515625 15.644531 C 4.515625 17.082031 6.136719 18.519531 8.847656 19.5 L 8.539062 20.351562 C 5.40625 19.21875 3.613281 17.503906 3.613281 15.644531 C 3.613281 13.785156 5.40625 12.070312 8.539062 10.941406 L 8.847656 11.792969 C 6.136719 12.769531 4.515625 14.210938 4.515625 15.644531 M 9.097656 23.542969 L 4.902344 27.734375 L 8.328125 27.734375 L 8.328125 28.636719 L 3.8125 28.636719 C 3.566406 28.636719 3.363281 28.433594 3.363281 28.1875 L 3.363281 23.671875 L 4.265625 23.671875 L 4.265625 27.097656 L 8.457031 22.902344 Z M 16 12.066406 C 12.777344 12.066406 11.035156 11.230469 11.035156 10.890625 C 11.035156 10.550781 12.777344 9.722656 16 9.722656 C 19.222656 9.722656 20.964844 10.550781 20.964844 10.890625 C 20.964844 11.230469 19.222656 12.066406 16 12.066406 M 16.011719 15.5625 C 12.925781 15.5625 11.035156 14.71875 11.035156 14.257812 L 11.035156 12.066406 C 12.148438 12.679688 14.121094 12.96875 16 12.96875 C 17.878906 12.96875 19.851562 12.679688 20.964844 12.066406 L 20.964844 14.257812 C 20.964844 14.71875 19.085938 15.5625 16.011719 15.5625 M 16.011719 19.007812 C 12.925781 19.007812 11.035156 18.167969 11.035156 17.707031 L 11.035156 15.484375 C 12.132812 16.128906 14.078125 16.464844 16.011719 16.464844 C 17.9375 16.464844 19.871094 16.132812 20.964844 15.488281 L 20.964844 17.707031 C 20.964844 18.167969 19.085938 19.007812 16.011719 19.007812 M 16 22.101562 C 12.789062 22.101562 11.035156 21.238281 11.035156 20.796875 L 11.035156 18.933594 C 12.132812 19.578125 14.078125 19.914062 16.011719 19.914062 C 17.9375 19.914062 19.871094 19.582031 20.964844 18.9375 L 20.964844 20.796875 C 20.964844 21.238281 19.210938 22.101562 16 22.101562 M 16 8.816406 C 13.171875 8.816406 10.128906 9.464844 10.128906 10.890625 L 10.128906 20.796875 C 10.128906 22.246094 13.082031 23.003906 16 23.003906 C 18.917969 23.003906 21.871094 22.246094 21.871094 20.796875 L 21.871094 10.890625 C 21.871094 9.464844 18.828125 8.816406 16 8.816406 "/>
</svg>

<svg role="img" viewBox="0 0 32 32" height="32" width="32" xmlns="http://www.w3.org/2000/svg"><path d="M.203.203h31.594v31.594H.203Zm0 0" fill="rgb(78.823529%, 14.509804%, 81.960784%)"/><path d="m4.902 4.266 4.196 4.191-.641.64-4.191-4.195v3.426h-.903V3.813c0-.247.203-.45.45-.45h4.515v.903Zm23.735-.453v4.515h-.903V4.902l-4.191 4.196-.64-.641 4.195-4.191h-3.426v-.903h4.515c.247 0 .45.203.45.45m-.903 19.859h.903v4.515c0 .247-.203.45-.45.45h-4.515v-.903h3.426l-4.196-4.191.641-.64 4.191 4.195Zm-.226-8.027c0-1.5-1.73-2.977-4.625-3.957l.289-.856c3.332 1.125 5.238 2.879 5.238 4.813 0 1.93-1.906 3.687-5.238 4.816l-.29-.856c2.895-.98 4.626-2.464 4.626-3.96m-22.992 0c0 1.437 1.62 2.875 4.332 3.855l-.309.852c-3.133-1.133-4.926-2.848-4.926-4.707 0-1.86 1.793-3.575 4.926-4.704l.309.852c-2.711.977-4.332 2.418-4.332 3.852m4.582 7.898-4.196 4.191h3.426v.903H3.813a.452.452 0 0 1-.45-.45v-4.515h.903v3.426l4.191-4.196ZM16 12.066c-3.223 0-4.965-.836-4.965-1.175 0-.34 1.742-1.168 4.965-1.168s4.965.828 4.965 1.168c0 .34-1.742 1.175-4.965 1.175m.012 3.496c-3.086 0-4.977-.843-4.977-1.304v-2.192c1.113.614 3.086.903 4.965.903s3.852-.29 4.965-.903v2.192c0 .46-1.88 1.305-4.953 1.305m0 3.445c-3.086 0-4.977-.84-4.977-1.301v-2.223c1.098.645 3.043.98 4.977.98 1.925 0 3.86-.331 4.953-.976v2.219c0 .461-1.88 1.3-4.953 1.3M16 22.103c-3.21 0-4.965-.864-4.965-1.305v-1.863c1.098.644 3.043.98 4.977.98 1.925 0 3.86-.332 4.953-.977v1.86c0 .441-1.754 1.305-4.965 1.305m0-13.286c-2.828 0-5.871.649-5.871 2.075v9.906c0 1.45 2.953 2.207 5.871 2.207 2.918 0 5.871-.758 5.871-2.207V10.89c0-1.426-3.043-2.075-5.871-2.075" fill="rgb(100%, 100%, 100%)"/></svg>
